portal-web/docroot/html/themes/_unstyled/images/common/drive.svg

<svg xmlns="http://www.w3.org/2000/svg" viewBox="0 0 512 512" enable-background="new 0 0 512 512">
    <path id="computer-5-icon" d="M209.572 328.285l-33.48 33.48h159.816l-33.48-33.48h-92.856zm220.22-19.79H82.208V60.234h347.58v248.26zm-33.482-33.48v-181.3H115.69v181.3h280.62zm-314.1 106.75v70h347.58v-70H82.21zM256 425.016c-4.557 0-8.25-3.692-8.25-8.25s3.693-8.25 8.25-8.25 8.25 3.694 8.25 8.25-3.693 8.25-8.25 8.25zm144.387-.75H293.72v-15h106.667v15z"/>
</svg>

<?xml version="1.0" encoding="utf-8"?>
<!-- License Agreement at http://iconmonstr.com/license/ -->
<!DOCTYPE svg PUBLIC "-//W3C//DTD SVG 1.1//EN" "http://www.w3.org/Graphics/SVG/1.1/DTD/svg11.dtd">
<svg version="1.1" xmlns="http://www.w3.org/2000/svg" xlink="http://www.w3.org/1999/xlink" x="0px" y="0px" viewBox="0 0 512 512" enable-background="new 0 0 512 512" space="preserve"> <path id="computer-5-icon" d="M209.572,328.285l-33.48,33.48h159.816l-33.48-33.48H209.572z M429.791,308.494H82.209V60.234h347.582
V308.494z M396.31,275.014v-181.3l-280.621,0.002l0.002,181.298H396.31z M82.209,381.766v70h347.582v-70H82.209z M256,425.016
c-4.557,0-8.25-3.693-8.25-8.25s3.693-8.25,8.25-8.25s8.25,3.693,8.25,8.25S260.557,425.016,256,425.016z M400.387,424.266H293.721
v-15h106.666V424.266z"></path> </svg>
